Numix-Circle/48x48/apps/meld.svg

<?xml version="1.0" encoding="UTF-8" standalone="no"?>
<svg
   xmlns:dc="http://purl.org/dc/elements/1.1/"
   xmlns:cc="http://creativecommons.org/ns#"
   xmlns:rdf="http://www.w3.org/1999/02/22-rdf-syntax-ns#"
   xmlns:svg="http://www.w3.org/2000/svg"
   xmlns="http://www.w3.org/2000/svg"
   xmlns:xlink="http://www.w3.org/1999/xlink"
   xmlns:sodipodi="http://sodipodi.sourceforge.net/DTD/sodipodi-0.dtd"
   xmlns:inkscape="http://www.inkscape.org/namespaces/inkscape"
   viewBox="0 0 48 48"
   id="svg2"
   version="1.1"
   inkscape:version="0.48.4 r9939"
   width="100%"
   height="100%"
   sodipodi:docname="meld.svg">
  <metadata
     id="metadata61">
    <rdf:RDF>
      <cc:Work
         rdf:about="">
        <dc:format>image/svg+xml</dc:format>
        <dc:type
           rdf:resource="http://purl.org/dc/dcmitype/StillImage" />
      </cc:Work>
    </rdf:RDF>
  </metadata>
  <sodipodi:namedview
     pagecolor="#ffffff"
     bordercolor="#666666"
     borderopacity="1"
     objecttolerance="10"
     gridtolerance="10"
     guidetolerance="10"
     inkscape:pageopacity="0"
     inkscape:pageshadow="2"
     inkscape:window-width="640"
     inkscape:window-height="480"
     id="namedview59"
     showgrid="false"
     inkscape:zoom="4.9166667"
     inkscape:cx="15.801328"
     inkscape:cy="22.043583"
     inkscape:window-x="0"
     inkscape:window-y="0"
     inkscape:window-maximized="0"
     inkscape:current-layer="svg2" />
  <defs
     id="defs4">
    <linearGradient
       id="linearGradient3764"
       x1="1"
       x2="47"
       gradientUnits="userSpaceOnUse"
       gradientTransform="matrix(0,-1,1,0,-1.5e-6,47.999998)">
      <stop
         stop-color="#ffab3d"
         stop-opacity="1"
         id="stop7" />
      <stop
         offset="1"
         stop-color="#ffb250"
         stop-opacity="1"
         id="stop9" />
    </linearGradient>
    <clipPath
       id="clipPath-584600901">
      <g
         transform="translate(0,-1004.3622)"
         id="g12">
        <path
           d="m -24 13 c 0 1.105 -0.672 2 -1.5 2 -0.828 0 -1.5 -0.895 -1.5 -2 0 -1.105 0.672 -2 1.5 -2 0.828 0 1.5 0.895 1.5 2 z"
           transform="matrix(15.333333,0,0,11.5,414.99999,878.8622)"
           fill="#1890d0"
           id="path14" />
      </g>
    </clipPath>
    <clipPath
       id="clipPath-590808532">
      <g
         transform="translate(0,-1004.3622)"
         id="g17">
        <path
           d="m -24 13 c 0 1.105 -0.672 2 -1.5 2 -0.828 0 -1.5 -0.895 -1.5 -2 0 -1.105 0.672 -2 1.5 -2 0.828 0 1.5 0.895 1.5 2 z"
           transform="matrix(15.333333,0,0,11.5,414.99999,878.8622)"
           fill="#1890d0"
           id="path19" />
      </g>
    </clipPath>
    <linearGradient
       inkscape:collect="always"
       xlink:href="#linearGradient3764"
       id="linearGradient3066"
       gradientUnits="userSpaceOnUse"
       gradientTransform="matrix(0,-1,1,0,-1.5e-6,47.999998)"
       x1="1"
       x2="47" />
    <linearGradient
       inkscape:collect="always"
       xlink:href="#linearGradient3764"
       id="linearGradient3069"
       gradientUnits="userSpaceOnUse"
       gradientTransform="matrix(0,-1,1,0,-1.5e-6,47.999998)"
       x1="1"
       x2="47" />
    <linearGradient
       inkscape:collect="always"
       xlink:href="#linearGradient3764"
       id="linearGradient3092"
       gradientUnits="userSpaceOnUse"
       gradientTransform="matrix(0,-1,1,0,-1.5e-6,47.999998)"
       x1="1"
       x2="47" />
    <linearGradient
       inkscape:collect="always"
       xlink:href="#linearGradient3764"
       id="linearGradient3095"
       gradientUnits="userSpaceOnUse"
       gradientTransform="matrix(0,-1,1,0,-1.5e-6,47.999998)"
       x1="1"
       x2="47" />
    <linearGradient
       inkscape:collect="always"
       xlink:href="#linearGradient3764"
       id="linearGradient3104"
       gradientUnits="userSpaceOnUse"
       gradientTransform="matrix(0,-1,1,0,-1.5e-6,47.999998)"
       x1="1"
       x2="47" />
    <linearGradient
       inkscape:collect="always"
       xlink:href="#linearGradient3764"
       id="linearGradient3113"
       gradientUnits="userSpaceOnUse"
       gradientTransform="matrix(0,-1,1,0,-1.5e-6,47.999998)"
       x1="1"
       x2="47" />
    <linearGradient
       inkscape:collect="always"
       xlink:href="#linearGradient3764"
       id="linearGradient3121"
       gradientUnits="userSpaceOnUse"
       gradientTransform="matrix(0,-1,1,0,-1.5e-6,47.999998)"
       x1="1"
       x2="47" />
  </defs>
  <g
     id="g21">
    <path
       d="m 36.31 5 c 5.859 4.062 9.688 10.831 9.688 18.5 c 0 12.426 -10.07 22.5 -22.5 22.5 c -7.669 0 -14.438 -3.828 -18.5 -9.688 c 1.037 1.822 2.306 3.499 3.781 4.969 c 4.085 3.712 9.514 5.969 15.469 5.969 c 12.703 0 23 -10.298 23 -23 c 0 -5.954 -2.256 -11.384 -5.969 -15.469 c -1.469 -1.475 -3.147 -2.744 -4.969 -3.781 z m 4.969 3.781 c 3.854 4.113 6.219 9.637 6.219 15.719 c 0 12.703 -10.297 23 -23 23 c -6.081 0 -11.606 -2.364 -15.719 -6.219 c 4.16 4.144 9.883 6.719 16.219 6.719 c 12.703 0 23 -10.298 23 -23 c 0 -6.335 -2.575 -12.06 -6.719 -16.219 z"
       opacity="0.05"
       id="path23" />
    <path
       d="m 41.28 8.781 c 3.712 4.085 5.969 9.514 5.969 15.469 c 0 12.703 -10.297 23 -23 23 c -5.954 0 -11.384 -2.256 -15.469 -5.969 c 4.113 3.854 9.637 6.219 15.719 6.219 c 12.703 0 23 -10.298 23 -23 c 0 -6.081 -2.364 -11.606 -6.219 -15.719 z"
       opacity="0.1"
       id="path25" />
    <path
       d="m 31.25 2.375 c 8.615 3.154 14.75 11.417 14.75 21.13 c 0 12.426 -10.07 22.5 -22.5 22.5 c -9.708 0 -17.971 -6.135 -21.12 -14.75 a 23 23 0 0 0 44.875 -7 a 23 23 0 0 0 -16 -21.875 z"
       opacity="0.2"
       id="path27" />
  </g>
  <path
     style="fill:url(#linearGradient3121);fill-opacity:1"
     d="M 29.90625 4.375 C 29.527677 4.3867845 29.160464 4.4049341 28.78125 4.4375 C 20.41425 5.1525 11.523 12.07425 12.5 21.03125 C 13.078 26.33425 17.34725 30.11675 23.03125 29.34375 C 25.47725 28.60875 24.574 25.25 24 24 C 22.285 23.55 19.04325 21.1795 20.65625 17.6875 C 23.13325 13.3715 31.74625 9.8825 37.90625 14.8125 C 41.726622 17.868036 44.068051 21.407224 45.3125 25.125 C 45.436894 25.496624 45.554037 25.874996 45.65625 26.25 C 45.758949 26.626788 45.856538 26.995395 45.9375 27.375 C 45.955768 27.460654 45.982818 27.539221 46 27.625 C 46.026321 27.749587 46.038538 27.875151 46.0625 28 C 46.166835 28.543624 46.255096 29.076875 46.3125 29.625 C 46.764929 27.824938 47 25.940477 47 24 C 47 16.4415 43.347615 9.7237443 37.71875 5.53125 C 37.709232 5.5281443 37.697021 5.5343442 37.6875 5.53125 C 37.338259 5.4177551 36.978575 5.3159152 36.625 5.21875 C 36.270348 5.1206314 35.920555 5.0192133 35.5625 4.9375 C 35.552421 4.935221 35.541332 4.939766 35.53125 4.9375 C 35.183465 4.8585959 34.850562 4.7816773 34.5 4.71875 C 34.479829 4.7151484 34.457679 4.7222999 34.4375 4.71875 C 34.3138 4.6968876 34.186508 4.6760804 34.0625 4.65625 C 33.845786 4.6216218 33.623737 4.591176 33.40625 4.5625 C 33.377195 4.5478058 33.34163 4.5458141 33.3125 4.53125 C 32.191385 4.3899281 31.04197 4.3396465 29.90625 4.375 z M 24 24 C 25.715 24.454 28.96075 26.8245 27.34375 30.3125 C 24.86675 34.6285 16.25375 38.1135 10.09375 33.1875 C 5.5510918 29.55126 3.0817564 25.240132 2.09375 20.75 C 2.0661494 20.624565 2.0262019 20.500552 2 20.375 C 1.9814795 20.28265 1.9860223 20.186238 1.96875 20.09375 C 1.8550154 19.521466 1.7482046 18.952496 1.6875 18.375 C 1.2350709 20.175062 1 22.059523 1 24 C 1 31.5585 4.6523855 38.276256 10.28125 42.46875 C 10.288212 42.473935 10.305532 42.463572 10.3125 42.46875 C 10.66337 42.582937 11.020243 42.683056 11.375 42.78125 C 11.541342 42.82586 11.707886 42.86536 11.875 42.90625 C 12.401331 43.035033 12.935902 43.152484 13.46875 43.25 C 13.501587 43.267299 13.529565 43.295363 13.5625 43.3125 C 13.579079 43.321127 13.608396 43.303915 13.625 43.3125 C 15.461069 43.631537 17.343348 43.722484 19.21875 43.5625 C 27.58975 42.8435 36.477 35.92575 35.5 26.96875 C 34.921 21.66475 30.8715 17.9145 25.1875 18.6875 C 22.7455 19.4305 23.426 22.746 24 24 z "
     id="path31" />
  <g
     id="g33" />
  <path
     style="opacity:0.1;fill:#000000;fill-opacity:1;fill-rule:evenodd;stroke:none"
     d="M 26.5 1.15625 C 26.926312 1.202226 27.362318 1.243629 27.78125 1.3125 C 27.358565 1.2424409 26.930138 1.202926 26.5 1.15625 z M 18.15625 1.75 C 17.647432 1.8832556 17.150671 2.052158 16.65625 2.21875 C 17.148855 2.053048 17.649386 1.8826307 18.15625 1.75 z M 22.46875 2.25 C 12.869817 2.736571 4.9579144 9.4589331 2.59375 18.4375 C 2.5944059 18.44796 2.5930796 18.45829 2.59375 18.46875 C 2.9560388 24.121282 5.4509375 29.670625 11.09375 34.1875 C 17.25375 39.1135 25.86675 35.6285 28.34375 31.3125 C 29.96075 27.8245 26.715 25.454 25 25 C 25.574 26.25 26.47725 29.60875 24.03125 30.34375 C 18.34725 31.11675 14.078 27.33425 13.5 22.03125 C 12.523 13.07425 21.41425 6.1525 29.78125 5.4375 C 32.946191 5.1657034 36.099691 5.6276166 39.09375 6.65625 C 38.646155 6.2657253 38.195752 5.8865309 37.71875 5.53125 C 37.70925 5.52814 37.69702 5.53434 37.6875 5.53125 C 36.290537 5.0772703 34.856164 4.7536731 33.40625 4.5625 C 30.458916 3.0719202 27.122315 2.25 23.59375 2.25 C 23.21815 2.25 22.839678 2.231198 22.46875 2.25 z M 25 25 C 24.426 23.746 23.7455 20.4305 26.1875 19.6875 C 31.8715 18.9145 35.921 22.66475 36.5 27.96875 C 37.477 36.92575 28.58975 43.8435 20.21875 44.5625 C 18.966647 44.669313 17.708852 44.643522 16.46875 44.53125 C 18.702456 45.307591 21.094979 45.75 23.59375 45.75 C 35.237364 45.75 44.729626 36.623761 45.3125 25.125 C 45.807513 26.603845 46.153472 28.106508 46.3125 29.625 C 46.489732 28.919854 46.609293 28.198093 46.71875 27.46875 C 45.622939 23.257845 43.189378 19.238149 38.90625 15.8125 C 32.74625 10.8825 24.13325 14.3715 21.65625 18.6875 C 20.04325 22.1795 23.285 24.55 25 25 z M 31.34375 45.78125 C 30.851145 45.946952 30.350614 46.117369 29.84375 46.25 C 30.352568 46.116744 30.849329 45.947842 31.34375 45.78125 z M 20.21875 46.6875 C 20.641435 46.75756 21.069862 46.797074 21.5 46.84375 C 21.073688 46.79777 20.637682 46.75637 20.21875 46.6875 z M 25.90625 46.90625 C 25.278294 46.957704 24.641196 47 24 47 C 24.64385 47 25.275789 46.95813 25.90625 46.90625 z "
     id="path45" />
  <path
     style="fill:#709ddd;fill-opacity:1;fill-rule:evenodd;stroke:none"
     d="M 24 1 C 13.237477 1 4.1968209 8.3912649 1.6875 18.375 C 2.2484016 23.710984 4.7537226 28.912994 10.09375 33.1875 C 16.25375 38.1135 24.86675 34.6285 27.34375 30.3125 C 28.96075 26.8245 25.715 24.454 24 24 C 24.574 25.25 25.47725 28.60875 23.03125 29.34375 C 17.34725 30.11675 13.078 26.33425 12.5 21.03125 C 11.523 12.07425 20.41425 5.1525 28.78125 4.4375 C 31.814964 4.1769728 34.836029 4.5906566 37.71875 5.53125 C 33.887607 2.6777354 29.1445 1 24 1 z M 24 24 C 23.426 22.746 22.7455 19.4305 25.1875 18.6875 C 30.8715 17.9145 34.921 21.66475 35.5 26.96875 C 36.477 35.92575 27.58975 42.8435 19.21875 43.5625 C 16.185036 43.821296 13.163446 43.410538 10.28125 42.46875 C 14.112393 45.322265 18.8555 47 24 47 C 34.762523 47 43.803179 39.608735 46.3125 29.625 C 45.753681 24.289061 43.246277 19.083457 37.90625 14.8125 C 31.74625 9.8825 23.13325 13.3715 20.65625 17.6875 C 19.04325 21.1795 22.285 23.55 24 24 z "
     id="path53" />
  <g
     id="g55">
    <path
       d="m 40.03 7.531 c 3.712 4.084 5.969 9.514 5.969 15.469 0 12.703 -10.297 23 -23 23 c -5.954 0 -11.384 -2.256 -15.469 -5.969 4.178 4.291 10.01 6.969 16.469 6.969 c 12.703 0 23 -10.298 23 -23 0 -6.462 -2.677 -12.291 -6.969 -16.469 z"
       id="path57"
       opacity="0.1" />
  </g>
</svg>

<svg xmlns="http://www.w3.org/2000/svg" viewBox="0 0 48 48"><defs><clipPath><g transform="translate(0,-1004.3622)"><path d="m -24 13 c 0 1.105 -0.672 2 -1.5 2 -0.828 0 -1.5 -0.895 -1.5 -2 0 -1.105 0.672 -2 1.5 -2 0.828 0 1.5 0.895 1.5 2 z" transform="matrix(15.333333,0,0,11.5,414.99999,878.8622)" fill="#1890d0"/></g></clipPath><clipPath><g transform="translate(0,-1004.3622)"><path d="m -24 13 c 0 1.105 -0.672 2 -1.5 2 -0.828 0 -1.5 -0.895 -1.5 -2 0 -1.105 0.672 -2 1.5 -2 0.828 0 1.5 0.895 1.5 2 z" transform="matrix(15.333333,0,0,11.5,414.99999,878.8622)" fill="#1890d0"/></g></clipPath><linearGradient id="linearGradient3121" gradientUnits="userSpaceOnUse" gradientTransform="matrix(0,-1,1,0,-1.5e-6,47.999998)" x1="1" x2="47"><stop stop-color="#ffab3d" stop-opacity="1"/><stop offset="1" stop-color="#ffb250" stop-opacity="1"/></linearGradient></defs><g><path d="m 36.31 5 c 5.859 4.062 9.688 10.831 9.688 18.5 c 0 12.426 -10.07 22.5 -22.5 22.5 c -7.669 0 -14.438 -3.828 -18.5 -9.688 c 1.037 1.822 2.306 3.499 3.781 4.969 c 4.085 3.712 9.514 5.969 15.469 5.969 c 12.703 0 23 -10.298 23 -23 c 0 -5.954 -2.256 -11.384 -5.969 -15.469 c -1.469 -1.475 -3.147 -2.744 -4.969 -3.781 z m 4.969 3.781 c 3.854 4.113 6.219 9.637 6.219 15.719 c 0 12.703 -10.297 23 -23 23 c -6.081 0 -11.606 -2.364 -15.719 -6.219 c 4.16 4.144 9.883 6.719 16.219 6.719 c 12.703 0 23 -10.298 23 -23 c 0 -6.335 -2.575 -12.06 -6.719 -16.219 z" opacity="0.05"/><path d="m 41.28 8.781 c 3.712 4.085 5.969 9.514 5.969 15.469 c 0 12.703 -10.297 23 -23 23 c -5.954 0 -11.384 -2.256 -15.469 -5.969 c 4.113 3.854 9.637 6.219 15.719 6.219 c 12.703 0 23 -10.298 23 -23 c 0 -6.081 -2.364 -11.606 -6.219 -15.719 z" opacity="0.1"/><path d="m 31.25 2.375 c 8.615 3.154 14.75 11.417 14.75 21.13 c 0 12.426 -10.07 22.5 -22.5 22.5 c -9.708 0 -17.971 -6.135 -21.12 -14.75 a 23 23 0 0 0 44.875 -7 a 23 23 0 0 0 -16 -21.875 z" opacity="0.2"/></g><path d="m 29.906 4.375 c -0.379 0.012 -0.746 0.03 -1.125 0.063 c -8.367 0.715 -17.258 7.637 -16.281 16.594 c 0.578 5.303 4.847 9.09 10.531 8.313 c 2.446 -0.735 1.543 -4.094 0.969 -5.344 c -1.715 -0.45 -4.957 -2.82 -3.344 -6.313 c 2.477 -4.316 11.09 -7.805 17.25 -2.875 c 3.82 3.056 6.162 6.595 7.406 10.313 c 0.124 0.372 0.242 0.75 0.344 1.125 c 0.103 0.377 0.2 0.745 0.281 1.125 c 0.018 0.086 0.045 0.164 0.063 0.25 c 0.026 0.125 0.039 0.25 0.063 0.375 c 0.104 0.544 0.193 1.077 0.25 1.625 c 0.452 -1.8 0.688 -3.685 0.688 -5.625 c 0 -7.558 -3.652 -14.276 -9.281 -18.469 c -0.01 -0.003 -0.022 0.003 -0.031 0 c -0.349 -0.113 -0.709 -0.215 -1.063 -0.313 c -0.355 -0.098 -0.704 -0.2 -1.063 -0.281 c -0.01 -0.002 -0.021 0.002 -0.031 0 c -0.348 -0.079 -0.681 -0.156 -1.031 -0.219 c -0.02 -0.004 -0.042 0.004 -0.063 0 c -0.124 -0.022 -0.251 -0.043 -0.375 -0.063 c -0.217 -0.035 -0.439 -0.065 -0.656 -0.094 c -0.029 -0.015 -0.065 -0.017 -0.094 -0.031 c -1.121 -0.141 -2.271 -0.192 -3.406 -0.156 z m -5.906 19.625 c 1.715 0.454 4.961 2.825 3.344 6.313 c -2.477 4.316 -11.09 7.801 -17.25 2.875 c -4.543 -3.636 -7.01 -7.947 -8 -12.438 c -0.028 -0.125 -0.068 -0.249 -0.094 -0.375 c -0.019 -0.092 -0.014 -0.189 -0.031 -0.281 c -0.114 -0.572 -0.221 -1.141 -0.281 -1.719 c -0.452 1.8 -0.688 3.685 -0.688 5.625 c 0 7.558 3.652 14.276 9.281 18.469 c 0.007 0.005 0.024 -0.005 0.031 0 c 0.351 0.114 0.708 0.214 1.063 0.313 c 0.166 0.045 0.333 0.084 0.5 0.125 c 0.526 0.129 1.061 0.246 1.594 0.344 c 0.033 0.017 0.061 0.045 0.094 0.063 c 0.017 0.009 0.046 -0.009 0.063 0 c 1.836 0.319 3.718 0.41 5.594 0.25 c 8.371 -0.719 17.258 -7.637 16.281 -16.594 c -0.579 -5.304 -4.628 -9.05 -10.313 -8.281 c -2.442 0.743 -1.762 4.058 -1.188 5.313 z" fill="url(#linearGradient3121)" fill-opacity="1"/><path d="m 26.5 1.156 c 0.426 0.046 0.862 0.087 1.281 0.156 c -0.423 -0.07 -0.851 -0.11 -1.281 -0.156 z m -8.344 0.594 c -0.509 0.133 -1.01 0.302 -1.5 0.469 c 0.493 -0.166 0.993 -0.336 1.5 -0.469 z m 4.313 0.5 c -9.599 0.487 -17.511 7.209 -19.875 16.188 c 0.001 0.01 -0.001 0.021 0 0.031 c 0.362 5.653 2.857 11.202 8.5 15.719 c 6.16 4.926 14.773 1.441 17.25 -2.875 c 1.617 -3.488 -1.629 -5.858 -3.344 -6.313 c 0.574 1.25 1.477 4.609 -0.969 5.344 c -5.684 0.773 -9.953 -3.01 -10.531 -8.313 c -0.977 -8.957 7.914 -15.879 16.281 -16.594 c 3.165 -0.272 6.318 0.19 9.313 1.219 c -0.448 -0.391 -0.898 -0.77 -1.375 -1.125 c -0.01 -0.003 -0.022 0.003 -0.031 0 c -1.397 -0.454 -2.831 -0.778 -4.281 -0.969 c -2.947 -1.491 -6.284 -2.313 -9.813 -2.313 c -0.376 0 -0.754 -0.019 -1.125 0 z m 2.531 22.75 c -0.574 -1.254 -1.255 -4.57 1.188 -5.313 c 5.684 -0.773 9.734 2.977 10.313 8.281 c 0.977 8.957 -7.91 15.875 -16.281 16.594 c -1.252 0.107 -2.51 0.081 -3.75 -0.031 c 2.234 0.776 4.626 1.219 7.125 1.219 c 11.644 0 21.14 -9.126 21.719 -20.625 c 0.495 1.479 0.841 2.982 1 4.5 c 0.177 -0.705 0.297 -1.427 0.406 -2.156 c -1.096 -4.211 -3.529 -8.231 -7.813 -11.656 c -6.16 -4.93 -14.773 -1.441 -17.25 2.875 c -1.613 3.492 1.629 5.863 3.344 6.313 z m 6.344 20.781 c -0.493 0.166 -0.993 0.336 -1.5 0.469 c 0.509 -0.133 1.01 -0.302 1.5 -0.469 z m -11.125 0.906 c 0.423 0.07 0.851 0.11 1.281 0.156 c -0.426 -0.046 -0.862 -0.087 -1.281 -0.156 z m 5.688 0.219 c -0.628 0.051 -1.265 0.094 -1.906 0.094 c 0.644 0 1.276 -0.042 1.906 -0.094 z" opacity="0.1" fill="#000" fill-rule="evenodd" stroke="none" fill-opacity="1"/><path d="m 24 1 c -10.763 0 -19.803 7.391 -22.313 17.375 c 0.561 5.336 3.066 10.538 8.406 14.813 c 6.16 4.926 14.773 1.441 17.25 -2.875 c 1.617 -3.488 -1.629 -5.858 -3.344 -6.313 c 0.574 1.25 1.477 4.609 -0.969 5.344 c -5.684 0.773 -9.953 -3.01 -10.531 -8.313 c -0.977 -8.957 7.914 -15.879 16.281 -16.594 c 3.034 -0.261 6.05 0.153 8.938 1.094 c -3.831 -2.854 -8.574 -4.531 -13.719 -4.531 z m 0 23 c -0.574 -1.254 -1.255 -4.57 1.188 -5.313 c 5.684 -0.773 9.734 2.977 10.313 8.281 c 0.977 8.957 -7.91 15.875 -16.281 16.594 c -3.034 0.259 -6.06 -0.152 -8.938 -1.094 c 3.831 2.854 8.574 4.531 13.719 4.531 c 10.763 0 19.803 -7.391 22.313 -17.375 c -0.559 -5.336 -3.066 -10.542 -8.406 -14.813 c -6.16 -4.93 -14.773 -1.441 -17.25 2.875 c -1.613 3.492 1.629 5.863 3.344 6.313 z" fill="#709ddd" fill-rule="evenodd" stroke="none" fill-opacity="1"/><g><path d="m 40.03 7.531 c 3.712 4.084 5.969 9.514 5.969 15.469 0 12.703 -10.297 23 -23 23 c -5.954 0 -11.384 -2.256 -15.469 -5.969 4.178 4.291 10.01 6.969 16.469 6.969 c 12.703 0 23 -10.298 23 -23 0 -6.462 -2.677 -12.291 -6.969 -16.469 z" opacity="0.1"/></g></svg>
